X: 35937
T: Santorini Sunshine
R: reel
M: 4/4
K: Amajor
|:f3B cB B2|FB B2 A3e|f3B cB (3cde|fefa fbba|
f3B cB B2|FB B2 A3F|EF F2 A3c|BAFE F4:|
|:ef f2 afba|ef f2 afba|fa a2 fb b2|a3b afea|
f3B cB B2|FBBc A3F|EF F2 A3c|BAFE F4:|

